content/tutorials/java/cubic.svg

<?xml version="1.0" encoding="UTF-8" standalone="no"?>
<!-- Created with Inkscape (http://www.inkscape.org/) -->
<svg
   xmlns:dc="http://purl.org/dc/elements/1.1/"
   xmlns:cc="http://web.resource.org/cc/"
   xmlns:rdf="http://www.w3.org/1999/02/22-rdf-syntax-ns#"
   xmlns:svg="http://www.w3.org/2000/svg"
   xmlns="http://www.w3.org/2000/svg"
   xmlns:sodipodi="http://sodipodi.sourceforge.net/DTD/sodipodi-0.dtd"
   xmlns:inkscape="http://www.inkscape.org/namespaces/inkscape"
   version="1.0"
   width="109.35"
   height="127.29"
   id="svg2379"
   sodipodi:version="0.32"
   inkscape:version="0.45pre1"
   sodipodi:docname="Cubic.svg"
   inkscape:output_extension="org.inkscape.output.svg.inkscape"
   sodipodi:docbase="C:\Documents and Settings\Ed\My Documents\Wikipedia"
   sodipodi:modified="true">
  <metadata
     id="metadata7379">
    <rdf:RDF>
      <cc:Work
         rdf:about="">
        <dc:format>image/svg+xml</dc:format>
        <dc:type
           rdf:resource="http://purl.org/dc/dcmitype/StillImage" />
      </cc:Work>
    </rdf:RDF>
  </metadata>
  <sodipodi:namedview
     inkscape:window-height="573"
     inkscape:window-width="744"
     inkscape:pageshadow="2"
     inkscape:pageopacity="0.0"
     guidetolerance="10.0"
     gridtolerance="10.0"
     objecttolerance="10.0"
     borderopacity="1.0"
     bordercolor="#666666"
     pagecolor="#ffffff"
     id="base"
     inkscape:zoom="2.9617409"
     inkscape:cx="54.674999"
     inkscape:cy="63.645"
     inkscape:window-x="22"
     inkscape:window-y="28"
     inkscape:current-layer="svg2379" />
  <defs
     id="defs2381">
    <marker
       refX="0"
       refY="0"
       orient="auto"
       style="overflow:visible"
       id="Dot_m">
      <path
         d="M -2.5,-1 C -2.5,1.76 -4.74,4 -7.5,4 C -10.26,4 -12.5,1.76 -12.5,-1 C -12.5,-3.76 -10.26,-6 -7.5,-6 C -4.74,-6 -2.5,-3.76 -2.5,-1 z "
         transform="matrix(0.4,0,0,0.4,2.96,0.4)"
         style="fill-rule:evenodd;stroke:#000000;stroke-width:1pt;marker-start:none;marker-end:none"
         id="path3527" />
    </marker>
  </defs>
  <path
     d="M 82.52376,75.911003 C 83.74613,77.407143 83.52392,79.613473 82.02777,80.835833 C 80.53163,82.058193 78.3253,81.835993 77.10294,80.339843 C 75.88058,78.843693 76.10278,76.637373 77.59893,75.415013 C 79.09508,74.192653 81.3014,74.414853 82.52376,75.911003 z "
     style="fill:#c0c0c0;fill-opacity:1;fill-rule:evenodd;stroke:none;stroke-width:0.7pt;marker-start:none;marker-end:none"
     id="path3635" />
  <path
     d="M 96.406605,112.43954 L 96.437855,112.15829 L 96.312855,111.87704 L 80.0941,77.502043 L 79.8441,77.002043 L 79.31285,77.002043 L 7.4400724,77.002043 L 6.7213223,77.002043 L 6.5650723,77.720793 L 8.1588224,78.752043 L 78.75035,78.752043 L 94.625355,112.37704 L 96.406605,112.43954 z "
     style="fill:#c0c0c0;fill-opacity:1;fill-rule:evenodd;stroke:none;stroke-width:1.75;stroke-linecap:butt;stroke-linejoin:miter;stroke-miterlimit:4;stroke-dasharray:none;stroke-opacity:1"
     id="path3637" />
  <path
     d="M 79.761675,7.65961 L 80.05208,77.409243"
     style="fill:none;fill-rule:evenodd;stroke:#c0c0c0;stroke-width:1.75;stroke-linecap:butt;stroke-linejoin:miter;stroke-miterlimit:4;stroke-dasharray:none;stroke-opacity:1"
     id="path3639" />
  <path
     d="M 7.3947824,81.530433 C 5.4768623,81.763213 3.7313623,80.395563 3.4985723,78.477643 C 3.2657923,76.559713 4.6334423,74.814213 6.5513723,74.581433 C 8.4692924,74.348653 10.214802,75.716303 10.447582,77.634223 C 10.680361,79.552153 9.3127124,81.297653 7.3947824,81.530433 z "
     style="fill:#000000;fill-rule:evenodd;stroke:none;stroke-width:0.7pt;marker-start:none;marker-end:none"
     id="path3623" />
  <path
     d="M 6.1335693,3.932944 L 6.1109923,77.951233 L 6.0797423,78.232483 L 6.2047423,78.513733 L 22.423491,112.88873 L 22.673491,113.38873 L 23.204741,113.38873 L 95.077525,113.38873 L 95.796275,113.38873 L 95.952525,112.66998 L 95.975085,39.120443 L 94.256335,38.776693 L 94.358775,111.63873 L 23.767241,111.63873 L 7.8922424,78.013733 L 7.8523194,4.276694 L 6.1335693,3.932944 z "
     style="fill:#000000;fill-opacity:1;fill-rule:evenodd;stroke:none;stroke-width:1.75;stroke-linecap:butt;stroke-linejoin:miter;stroke-miterlimit:4;stroke-dasharray:none;stroke-opacity:1"
     id="path3599" />
  <path
     d="M 26.112231,114.33799 C 25.078121,115.96993 22.914371,116.45513 21.282421,115.42102 C 19.650481,114.38691 19.165281,112.22316 20.199391,110.59121 C 21.233501,108.95927 23.397261,108.47407 25.029201,109.50818 C 26.661141,110.54229 27.146341,112.70605 26.112231,114.33799 z "
     style="fill:#000000;fill-rule:evenodd;stroke:none;stroke-width:0.7pt;marker-start:none;marker-end:none"
     id="path3625" />
  <path
     d="M 5.7936323,5.671368 L 6.3873823,6.921368 L 23.106132,41.296368 L 23.356132,41.796368 L 23.887382,41.796368 L 95.760155,41.796368 L 97.166406,41.796368 L 96.572655,40.546368 L 80.322664,6.171368 L 80.103914,5.671368 L 79.541414,5.671368 L 7.1998824,5.671368 L 5.7936323,5.671368 z M 8.6061324,7.421368 L 79.010164,7.421368 L 94.385155,40.046368 L 24.481132,40.046368 L 8.6061324,7.421368 z "
     style="fill:#000000;fill-opacity:1;fill-rule:evenodd;stroke:none;stroke-width:1.75;stroke-linecap:butt;stroke-linejoin:miter;stroke-miterlimit:4;stroke-dasharray:none;stroke-opacity:1"
     id="path2430" />
  <path
     d="M 97.748066,110.33194 C 98.970436,111.82808 98.748226,114.03441 97.252076,115.25677 C 95.755935,116.47913 93.549605,116.25693 92.327245,114.76078 C 91.10488,113.26463 91.327085,111.05831 92.823235,109.83595 C 94.319385,108.61359 96.525705,108.83579 97.748066,110.33194 z "
     style="fill:#000000;fill-rule:evenodd;stroke:none;stroke-width:0.7pt;marker-start:none;marker-end:none"
     id="path3627" />
  <path
     d="M 93.164677,43.80999 C 91.532737,42.77588 91.047532,40.61213 92.081647,38.98018 C 93.115757,37.34824 95.279507,36.86304 96.911457,37.89715 C 98.543396,38.93126 99.028596,41.09502 97.994486,42.72696 C 96.960377,44.3589 94.796617,44.8441 93.164677,43.80999 z "
     style="fill:#000000;fill-opacity:1;fill-rule:evenodd;stroke:none;stroke-width:0.7pt;marker-start:none;marker-end:none"
     id="path3611" />
  <path
     d="M 20.188884,39.093168 C 21.213754,37.455408 23.374734,36.957998 25.012494,37.982878 C 26.650254,39.007758 27.147664,41.168738 26.122784,42.806498 C 25.097904,44.444248 22.936924,44.941658 21.299174,43.916788 C 19.661414,42.891908 19.164004,40.730928 20.188884,39.093168 z "
     style="fill:#000000;fill-opacity:1;fill-rule:evenodd;stroke:none;stroke-width:0.7pt;marker-start:none;marker-end:none"
     id="path3613" />
  <path
     d="M 82.770183,8.371958 C 81.736073,10.003898 79.572323,10.489098 77.94037,9.454988 C 76.30843,8.420878 75.82323,6.257128 76.85734,4.625178 C 77.89145,2.993238 80.055213,2.508038 81.687153,3.542148 C 83.319093,4.576258 83.804293,6.740018 82.770183,8.371958 z "
     style="fill:#000000;fill-opacity:1;fill-rule:evenodd;stroke:none;stroke-width:0.7pt;marker-start:none;marker-end:none"
     id="path3609" />
  <path
     d="M 8.8294514,3.628428 C 10.467211,4.653298 10.964621,6.814278 9.9397414,8.452038 C 8.9148614,10.089798 6.7538813,10.587208 5.1161213,9.562328 C 3.4783713,8.537448 2.9809613,6.376468 4.0058313,4.738718 C 5.0307113,3.100958 7.1916914,2.603548 8.8294514,3.628428 z "
     style="fill:#000000;fill-opacity:1;fill-rule:evenodd;stroke:none;stroke-width:0.7pt;marker-start:none;marker-end:none"
     id="path3615" />
  <path
     d="M 23.285226,40.929899 L 23.575631,114.1444"
     style="fill:none;fill-rule:evenodd;stroke:#000000;stroke-width:1.75;stroke-linecap:butt;stroke-linejoin:miter;stroke-miterlimit:4;stroke-dasharray:none;stroke-opacity:1"
     id="path6134" />
  <path
     style="font-size:16.6307106px;font-style:normal;font-weight:normal;fill:#000000;fill-opacity:1;stroke:none;stroke-width:1px;stroke-linecap:butt;stroke-linejoin:miter;stroke-opacity:1;font-family:Bitstream Vera Sans"
     d="M 9.1240299,91.780483 L 9.8711126,91.244533 L 10.390822,91.37446 L 9.1971141,96.522834 C 9.078007,97.037133 9.018457,97.437742 9.0184639,97.724663 C 9.018457,97.94121 9.0536457,98.098205 9.1240299,98.19565 C 9.1944003,98.293096 9.3053798,98.341819 9.456969,98.341818 C 9.6193708,98.341819 9.7926072,98.275502 9.9766787,98.142867 C 10.160735,98.010234 10.420589,97.757146 10.756243,97.383604 L 11.21911,97.83835 C 10.731873,98.35806 10.316377,98.727541 9.9726184,98.946793 C 9.6288446,99.166045 9.2566571,99.275672 8.8560546,99.275672 C 8.5204024,99.275672 8.2524273,99.164692 8.0521287,98.942733 C 7.8518182,98.720774 7.7516659,98.425731 7.7516715,98.057602 C 7.7516659,97.759853 7.8139227,97.443155 7.9384422,97.107508 L 7.8328761,97.075026 C 7.3131613,97.832937 6.8205203,98.387835 6.3549517,98.739721 C 5.8893746,99.091608 5.3967336,99.267551 4.8770272,99.267551 C 4.2815243,99.267551 3.8200118,99.042885 3.492488,98.593553 C 3.1649616,98.144221 3.0011991,97.513533 3.0012,96.701485 C 3.0011991,95.770341 3.1839094,94.875738 3.5493313,94.017671 C 3.9147504,93.159615 4.4168653,92.48291 5.0556774,91.987555 C 5.6944837,91.492215 6.406377,91.244541 7.1913595,91.244533 C 7.5432409,91.244541 7.8721193,91.283789 8.1779959,91.362279 C 8.4838603,91.440785 8.7992047,91.580186 9.1240299,91.780483 L 9.1240299,91.780483 z M 8.4094291,94.200382 C 8.4581456,93.978427 8.4906274,93.786243 8.5068747,93.623829 C 8.5231092,93.461425 8.5312297,93.285482 8.5312361,93.095999 C 8.5312297,92.679154 8.4419047,92.373284 8.2632607,92.178386 C 8.0846046,91.983502 7.7814409,91.886057 7.3537688,91.886049 C 6.7961589,91.886057 6.2953974,92.110723 5.8514829,92.560048 C 5.4075609,93.009386 5.0610881,93.611654 4.8120635,94.366851 C 4.5630335,95.122058 4.4385198,95.875907 4.4385221,96.6284 C 4.4385198,97.191421 4.5156642,97.612332 4.6699553,97.891133 C 4.8242415,98.169936 5.0827427,98.309337 5.4454597,98.309337 C 5.8027564,98.309337 6.1532895,98.155049 6.4970598,97.84647 C 6.8408214,97.537894 7.1954147,97.098036 7.5608406,96.526895 C 7.9262557,95.955759 8.1847569,95.296648 8.3363449,94.549562 L 8.4094291,94.200382 z "
     id="text6151" />
  <path
     style="font-size:16.6307106px;font-style:normal;font-weight:normal;fill:#000000;fill-opacity:1;stroke:none;stroke-width:1px;stroke-linecap:butt;stroke-linejoin:miter;stroke-opacity:1;font-family:Bitstream Vera Sans"
     d="M 61.642295,116.79625 L 62.389378,116.2603 L 62.909088,116.39022 L 61.71538,121.5386 C 61.596273,122.05289 61.536723,122.4535 61.536729,122.74043 C 61.536723,122.95697 61.571911,123.11397 61.642295,123.21141 C 61.712666,123.30886 61.823645,123.35758 61.975234,123.35758 C 62.137636,123.35758 62.310873,123.29126 62.494944,123.15863 C 62.679,123.026 62.938855,122.77291 63.274509,122.39937 L 63.737375,122.85411 C 63.250139,123.37382 62.834642,123.7433 62.490884,123.96256 C 62.14711,124.18181 61.774923,124.29143 61.37432,124.29143 C 61.038668,124.29143 60.770693,124.18045 60.570394,123.9585 C 60.370084,123.73654 60.269931,123.44149 60.269937,123.07336 C 60.269931,122.77562 60.332188,122.45892 60.456708,122.12327 L 60.351142,122.09079 C 59.831427,122.8487 59.338786,123.4036 58.873217,123.75548 C 58.40764,124.10737 57.914999,124.28331 57.395293,124.28331 C 56.79979,124.28331 56.338277,124.05865 56.010754,123.60932 C 55.683227,123.15998 55.519465,122.52929 55.519465,121.71725 C 55.519465,120.7861 55.702175,119.8915 56.067597,119.03343 C 56.433016,118.17538 56.935131,117.49867 57.573943,117.00332 C 58.212749,116.50798 58.924642,116.2603 59.709625,116.2603 C 60.061506,116.2603 60.390385,116.29955 60.696261,116.37804 C 61.002126,116.45655 61.31747,116.59595 61.642295,116.79625 L 61.642295,116.79625 z M 60.927695,119.21614 C 60.976411,118.99419 61.008893,118.80201 61.02514,118.63959 C 61.041375,118.47719 61.049495,118.30124 61.049502,118.11176 C 61.049495,117.69492 60.96017,117.38905 60.781526,117.19415 C 60.60287,116.99926 60.299706,116.90182 59.872034,116.90181 C 59.314424,116.90182 58.813663,117.12648 58.369748,117.57581 C 57.925826,118.02515 57.579354,118.62742 57.330329,119.38261 C 57.081299,120.13782 56.956785,120.89167 56.956788,121.64416 C 56.956785,122.20718 57.03393,122.62809 57.188221,122.90689 C 57.342507,123.1857 57.601008,123.3251 57.963725,123.3251 C 58.321022,123.3251 58.671555,123.17081 59.015325,122.86223 C 59.359087,122.55366 59.71368,122.1138 60.079106,121.54266 C 60.444521,120.97152 60.703022,120.31241 60.85461,119.56532 L 60.927695,119.21614 z "
     id="text6155" />
  <path
     style="font-size:16.6307106px;font-style:normal;font-weight:normal;fill:#000000;fill-opacity:1;stroke:none;stroke-width:1px;stroke-linecap:butt;stroke-linejoin:miter;stroke-opacity:1;font-family:Bitstream Vera Sans"
     d="M 104.25372,73.220348 L 105.0008,72.684398 L 105.52051,72.814325 L 104.3268,77.9627 C 104.20769,78.476998 104.14814,78.877607 104.14815,79.164528 C 104.14814,79.381075 104.18333,79.538071 104.25372,79.635515 C 104.32409,79.732962 104.43506,79.781684 104.58665,79.781683 C 104.74906,79.781684 104.92229,79.715367 105.10636,79.582732 C 105.29042,79.450099 105.55027,79.197011 105.88593,78.823469 L 106.34879,79.278215 C 105.86156,79.797925 105.44606,80.167406 105.1023,80.386658 C 104.75853,80.605911 104.38634,80.715537 103.98574,80.715537 C 103.65009,80.715537 103.38211,80.604557 103.18181,80.382598 C 102.9815,80.160639 102.88135,79.865596 102.88136,79.497467 C 102.88135,79.199718 102.94361,78.88302 103.06813,78.547373 L 102.96256,78.514891 C 102.44285,79.272802 101.95021,79.8277 101.48464,80.179586 C 101.01906,80.531473 100.52642,80.707416 100.00671,80.707416 C 99.41121,80.707416 98.949697,80.48275 98.622173,80.033418 C 98.294647,79.584087 98.130884,78.953398 98.130885,78.14135 C 98.130884,77.210207 98.313595,76.315603 98.679016,75.457536 C 99.044436,74.59948 99.54655,73.922775 100.18536,73.42742 C 100.82417,72.93208 101.53606,72.684406 102.32104,72.684398 C 102.67293,72.684406 103.0018,72.723655 103.30768,72.802145 C 103.61355,72.88065 103.92889,73.020051 104.25372,73.220348 L 104.25372,73.220348 z M 103.53911,75.640247 C 103.58783,75.418293 103.62031,75.226108 103.63656,75.063694 C 103.65279,74.90129 103.66091,74.725347 103.66092,74.535864 C 103.66091,74.11902 103.57159,73.813149 103.39295,73.618251 C 103.21429,73.423367 102.91113,73.325922 102.48345,73.325914 C 101.92584,73.325922 101.42508,73.550588 100.98117,73.999913 C 100.53725,74.449251 100.19077,75.051519 99.941749,75.806716 C 99.692719,76.561923 99.568205,77.315772 99.568207,78.068266 C 99.568205,78.631286 99.645349,79.052197 99.799641,79.330998 C 99.953927,79.609801 100.21243,79.749202 100.57514,79.749202 C 100.93244,79.749202 101.28297,79.594914 101.62674,79.286335 C 101.97051,78.977759 102.3251,78.537901 102.69053,77.96676 C 103.05594,77.395624 103.31444,76.736513 103.46603,75.989427 L 103.53911,75.640247 z "
     id="text6887" />
</svg>

<?xml version="1.0" encoding="UTF-8"?>
<svg version="1.0" viewBox="0 0 109.35 127.29" xmlns="http://www.w3.org/2000/svg" xmlns:cc="http://web.resource.org/cc/" xmlns:dc="http://purl.org/dc/elements/1.1/" xmlns:rdf="http://www.w3.org/1999/02/22-rdf-syntax-ns#">
<metadata>
<rdf:RDF>
<cc:Work rdf:about="">
<dc:format>image/svg+xml</dc:format>
<dc:type rdf:resource="http://purl.org/dc/dcmitype/StillImage"/>
</cc:Work>
</rdf:RDF>
</metadata>
<path d="m82.524 75.911c1.2224 1.4961 1.0002 3.7025-0.49599 4.9248-1.4961 1.2224-3.7025 1.0002-4.9248-0.49599s-1.0002-3.7025 0.49599-4.9248 3.7025-1.0002 4.9248 0.49599z" fill="#c0c0c0" fill-rule="evenodd"/>
<path d="m96.407 112.44l0.03125-0.28125-0.125-0.28125-16.219-34.375-0.25-0.5h-0.53125-71.873-0.71875l-0.15625 0.71875 1.5938 1.0312h70.592l15.875 33.625 1.7812 0.0625z" fill="#c0c0c0" fill-rule="evenodd"/>
<path d="m79.762 7.6596l0.2904 69.75" fill="none" stroke="#c0c0c0" stroke-width="1.75"/>
<path d="m7.3948 81.53c-1.9179 0.23278-3.6634-1.1349-3.8962-3.0528-0.23278-1.9179 1.1349-3.6634 3.0528-3.8962 1.9179-0.23278 3.6634 1.1349 3.8962 3.0528 0.23278 1.9179-1.1349 3.6634-3.0528 3.8962z" fill-rule="evenodd"/>
<path d="m6.1336 3.9329l-0.022577 74.018-0.03125 0.28125 0.125 0.28125 16.219 34.375 0.25 0.5h0.53125 71.873 0.71875l0.15625-0.71875 0.02256-73.55-1.7188-0.34375 0.10244 72.862h-70.592l-15.875-33.625-0.039923-73.737-1.7188-0.34375z" fill-rule="evenodd"/>
<path d="m26.112 114.34c-1.0341 1.6319-3.1979 2.1171-4.8298 1.083-1.6319-1.0341-2.1171-3.1979-1.083-4.8298 1.0341-1.6319 3.1979-2.1171 4.8298-1.083s2.1171 3.1979 1.083 4.8298z" fill-rule="evenodd"/>
<path d="m5.7936 5.6714l0.59375 1.25 16.719 34.375 0.25 0.5h0.53125 71.873 1.4063l-0.59375-1.25-16.25-34.375-0.21875-0.5h-0.5625-72.342-1.4063zm2.8125 1.75h70.404l15.375 32.625h-69.904l-15.875-32.625z" fill-rule="evenodd"/>
<path d="m97.748 110.33c1.2224 1.4961 1.0002 3.7025-0.49599 4.9248-1.4961 1.2224-3.7025 1.0002-4.9248-0.49599-1.2224-1.4962-1.0002-3.7025 0.49599-4.9248s3.7025-1.0002 4.9248 0.49599z" fill-rule="evenodd"/>
<path d="m93.165 43.81c-1.6319-1.0341-2.1171-3.1979-1.083-4.8298 1.0341-1.6319 3.1979-2.1171 4.8298-1.083 1.6319 1.0341 2.1171 3.1979 1.083 4.8298-1.0341 1.6319-3.1979 2.1171-4.8298 1.083z" fill-rule="evenodd"/>
<path d="m20.189 39.093c1.0249-1.6378 3.1858-2.1352 4.8236-1.1103s2.1352 3.1859 1.1103 4.8236c-1.0249 1.6378-3.1859 2.1352-4.8236 1.1103-1.6378-1.0249-2.1352-3.1859-1.1103-4.8236z" fill-rule="evenodd"/>
<path d="m82.77 8.372c-1.0341 1.6319-3.1979 2.1171-4.8298 1.083-1.6319-1.0341-2.1171-3.1979-1.083-4.8298 1.0341-1.6319 3.1979-2.1171 4.8298-1.083s2.1171 3.1979 1.083 4.8298z" fill-rule="evenodd"/>
<path d="m8.8295 3.6284c1.6378 1.0249 2.1352 3.1858 1.1103 4.8236-1.0249 1.6378-3.1859 2.1352-4.8236 1.1103-1.6378-1.0249-2.1352-3.1859-1.1103-4.8236 1.0249-1.6378 3.1859-2.1352 4.8236-1.1103z" fill-rule="evenodd"/>
<path d="m23.285 40.93l0.2904 73.215" fill="none" stroke="#000" stroke-width="1.75"/>
<path d="m9.124 91.78l0.74708-0.53595 0.51971 0.12993-1.1937 5.1484c-0.11911 0.5143-0.17866 0.91491-0.17865 1.2018-6.9e-6 0.21655 0.035182 0.37354 0.10557 0.47099 0.07037 0.097446 0.18135 0.14617 0.33294 0.14617 0.1624 1e-6 0.33564-0.066316 0.51971-0.19895 0.18406-0.13263 0.44391-0.38572 0.77956-0.75926l0.46287 0.45475c-0.48724 0.51971-0.90273 0.88919-1.2465 1.1084-0.34377 0.21925-0.71596 0.32888-1.1166 0.32888-0.33565 0-0.60363-0.11098-0.80393-0.33294-0.20031-0.22196-0.30046-0.517-0.30046-0.88513-5.6e-6 -0.29775 0.062251-0.61445 0.18677-0.95009l-0.10557-0.032482c-0.51971 0.75791-1.0124 1.3128-1.4779 1.6647-0.46558 0.35189-0.95822 0.52783-1.4779 0.52783-0.5955 0-1.057-0.22467-1.3845-0.674-0.32753-0.44933-0.49129-1.08-0.49129-1.8921-9e-7 -0.93114 0.18271-1.8257 0.54813-2.6838 0.36542-0.85806 0.86753-1.5348 1.5063-2.0301 0.63881-0.49534 1.3507-0.74301 2.1357-0.74302 0.35188 8e-6 0.68076 0.039256 0.98664 0.11775 0.30586 0.078506 0.62121 0.21791 0.94603 0.4182zm-0.7146 2.4199c0.048716-0.22196 0.081198-0.41414 0.097446-0.57655 0.016234-0.1624 0.024355-0.33835 0.024361-0.52783-6.4e-6 -0.41684-0.089331-0.72272-0.26798-0.91761-0.17866-0.19488-0.48182-0.29233-0.90949-0.29234-0.55761 8e-6 -1.0584 0.22467-1.5023 0.674-0.44392 0.44934-0.79039 1.0516-1.0394 1.8068-0.24903 0.75521-0.37354 1.5091-0.37354 2.2615-2.3e-6 0.56302 0.077142 0.98393 0.23143 1.2627 0.15429 0.2788 0.41279 0.4182 0.7755 0.4182 0.3573 0 0.70783-0.15429 1.0516-0.46287 0.34376-0.30858 0.69835-0.74843 1.0638-1.3196 0.36542-0.57114 0.62392-1.2302 0.7755-1.9773l0.073084-0.34918z"/>
<path d="m61.642 116.8l0.74708-0.53595 0.51971 0.12992-1.1937 5.1484c-0.11911 0.51429-0.17866 0.9149-0.17865 1.2018-6e-6 0.21654 0.035182 0.37354 0.10557 0.47098 0.070371 0.09745 0.18135 0.14617 0.33294 0.14617 0.1624 0 0.33564-0.06632 0.51971-0.19895 0.18406-0.13263 0.44391-0.38572 0.77956-0.75926l0.46287 0.45474c-0.48724 0.51971-0.90273 0.88919-1.2465 1.1084-0.34377 0.21925-0.71596 0.32887-1.1166 0.32887-0.33565 0-0.60363-0.11098-0.80393-0.33293-0.20031-0.22196-0.30046-0.51701-0.30046-0.88514-6e-6 -0.29774 0.062251-0.61444 0.18677-0.95009l-0.10557-0.03248c-0.51972 0.75791-1.0124 1.3128-1.4779 1.6647-0.46558 0.35189-0.95822 0.52783-1.4779 0.52783-0.5955 0-1.057-0.22466-1.3845-0.67399-0.32753-0.44934-0.49129-1.08-0.49129-1.8921 0-0.93115 0.18271-1.8258 0.54813-2.6838 0.36542-0.85805 0.86753-1.5348 1.5063-2.0301 0.63881-0.49534 1.3507-0.74302 2.1357-0.74302 0.35188 0 0.68076 0.03925 0.98664 0.11774 0.30586 0.07851 0.62121 0.21791 0.94603 0.41821zm-0.7146 2.4199c0.048716-0.22195 0.081198-0.41413 0.097445-0.57655 0.016235-0.1624 0.024355-0.33835 0.024362-0.52783-7e-6 -0.41684-0.089332-0.72271-0.26798-0.91761-0.17866-0.19489-0.48182-0.29233-0.90949-0.29234-0.55761 1e-5 -1.0584 0.22467-1.5023 0.674-0.44392 0.44934-0.79039 1.0516-1.0394 1.8068-0.24903 0.75521-0.37354 1.5091-0.37354 2.2616-3e-6 0.56302 0.077142 0.98393 0.23143 1.2627 0.15429 0.27881 0.41279 0.41821 0.7755 0.41821 0.3573 0 0.70783-0.15429 1.0516-0.46287 0.34376-0.30857 0.69836-0.74843 1.0638-1.3196 0.36542-0.57114 0.62392-1.2302 0.7755-1.9773l0.073085-0.34918z"/>
<path d="m104.25 73.22l0.74708-0.53595 0.51971 0.12993-1.1937 5.1484c-0.11911 0.5143-0.17866 0.91491-0.17865 1.2018-1e-5 0.21655 0.03518 0.37354 0.10557 0.47099 0.07037 0.097447 0.18134 0.14617 0.33293 0.14617 0.16241 1e-6 0.33564-0.066316 0.51971-0.19895 0.18406-0.13263 0.44391-0.38572 0.77957-0.75926l0.46286 0.45475c-0.48723 0.51971-0.90273 0.88919-1.2465 1.1084-0.34377 0.21925-0.71596 0.32888-1.1166 0.32888-0.33565 0-0.60363-0.11098-0.80393-0.33294-0.20031-0.22196-0.30046-0.517-0.30045-0.88513-1e-5 -0.29775 0.06225-0.61445 0.18677-0.95009l-0.10557-0.032482c-0.51971 0.75791-1.0124 1.3128-1.4779 1.6647-0.46558 0.35189-0.95822 0.52783-1.4779 0.52783-0.5955 0-1.057-0.22467-1.3845-0.674-0.32753-0.44933-0.49129-1.08-0.49129-1.8921-1e-6 -0.93114 0.18271-1.8257 0.54813-2.6838 0.36542-0.85806 0.86753-1.5348 1.5063-2.0301 0.63881-0.49534 1.3507-0.74301 2.1357-0.74302 0.35189 8e-6 0.68076 0.039257 0.98664 0.11775 0.30587 0.078505 0.62121 0.21791 0.94604 0.4182zm-0.71461 2.4199c0.04872-0.22195 0.0812-0.41414 0.09745-0.57655 0.01623-0.1624 0.02435-0.33835 0.02436-0.52783-1e-5 -0.41684-0.08933-0.72272-0.26797-0.91761-0.17866-0.19488-0.48182-0.29233-0.9095-0.29234-0.55761 8e-6 -1.0584 0.22467-1.5023 0.674-0.44392 0.44934-0.7904 1.0516-1.0394 1.8068-0.24903 0.75521-0.37354 1.5091-0.37354 2.2616-2e-6 0.56302 0.077142 0.98393 0.23143 1.2627 0.15429 0.2788 0.41279 0.4182 0.7755 0.4182 0.3573 0 0.70783-0.15429 1.0516-0.46287 0.34377-0.30858 0.69836-0.74843 1.0638-1.3196 0.36541-0.57114 0.62391-1.2302 0.7755-1.9773l0.07308-0.34918z"/>
</svg>
